!!!OTL: Alt und Jung.
!!!OTL-incipit: ALS ICH AN EINEM SOMMERTAG
!!!ARE: Europa, Mitteleuropa, Deutschland, Franken
!!!SCT: Z1096
!!!TXL: @@DE
!!!YEM: Copyright 1995, estate of Helmut Schaffrath.
**kern	**text
*ICvox	*
*M2/4	*
*k[f#c#]	*
*D:	*
!LO:TX:a:t=Aus Franken.	!
{8d	Als
=1	=1
8d	ich
8f#	an
8f#	ei-
8f#	-nem
=2	=2
8f#	Sommer-
8a	.
8a	-tag,
8r}	.
=3	=3
{8.g	val-
16f#	-le-
8g	-ri
8a	dum
=4	=4
4f#	da!
8r}	.
{8d	im
=5	=5
8d	Schatten
8f#	.
8f#	ſaß
8f#	im
=6	=6
8f#	grü-
8a	-nen
8a	Hag,
8r}	.
=7	=7
{8.g	val-
16f#	-le-
8g	-ri
8a	dum
=8	=8
4f#	da!
8r}	.
{8g	da
=9	=9
8g	ſah
8b/	ich
8b/	in
8b/	der
=10	=10
8b/	Fer-
8a	-ne
8a}	ſtehn
{8a	ein
=11	=11
8a	Mädel,
8g	.
8g	und
8g	das
=12	=12
8g	wun-
8f#	-der-
8f#	-ſchön!
8r}	.
=13	=13
{8.e	val-
16g	-le-
8g	-ri,
8r	.
=14	=14
8.f#	val-
16a	-le-
8a	-ri,
8r}	.
=15	=15
{8.g	val-
16f#	-le-
8g	-ri
8a	dum
=16	=16
4f#	da-
8a	-ri!
8r}	.
=17	=17
{8.e	val-
16g	-le-
8g	-ri,
8r	.
=18	=18
8.f#	val-
16a	-le-
8a	-ra,
8r}	.
=19	=19
{8.g	val-
16f#	-le-
8g	-ri
8e	dum
=20	=20
4d	da!
8r}	.
==	==
!!!AGN: Romanze, Ballade
!!!ONB: ESAC (Essen Associative Code) Database: ZUCCAL
!!!AMT: simple duple
!!!AIN: vox
!!!EED: Helmut Schaffrath
!!!EEV: 1.0
!!!GTL: II. Gau- Leuschen.
!!!URL-scan: https://www.digitale-sammlungen.de/de/view/bsb11160573?page=207
!!!ENC: Anna Maria Matuszewska
!!!EEV: 2025/02/04
*-	*-
